X:1
T:St. Cecilia (Hampton), LM
T:St. Cecilia (Hampton), LM
T:John Hampton, 1861
T:Public Domain Courtesy of the Cyber Hymnal™
C:John Hampton, 1861
Z:Public Domain
Z:Courtesy of the Cyber Hymnal™
%%score ( 1 2 ) ( 3 4 )
L:1/8
Q:1/4=110
M:none
K:C
V:1 treble 
V:2 treble 
V:3 bass 
V:4 bass 
V:1
 [EG]2 | [Ge]2 [Fd]2 [Gc]2 [Dc]2 | [DB]2 A2 [B,G]2 [GB]2 | [Gc]2 [EA]2 [Dd]2 [DB]2 | %4
 [EA]2 A2 [B,G]2 [Dd]2 | [B,e]2 [Ed]2 [Ec]2 [Fc]2 | G2 [DA]2 D2 [DG]2 | [^CG]2 [DF]2 [DF]2 [=CE]2 | %8
 [CD]2 [B,D]2 C2 |] %9
V:2
 x2 | x8 | x2 (DC) x4 | x8 | x2 (DC) x4 | x8 | G2 D2 x4 | x8 | x4 C2 |] %9
V:3
 [C,C]2 | [C,C]2 [D,B,]2 [E,C]2 [^F,A,]2 | G,2 [D,^F,]2 [E,G,]2 [G,D]2 | %3
 [E,C]2 [A,C]2 [^F,A,]2 G,2 | [C,G,]2 [D,^F,]2 G,2 [=F,A,]2 | %5
 ([E,^G,][^F,A,]) [G,B,]2 [A,C]2 [=F,A,]2 | [E,C]2 [^F,C]2 [G,B,]2 [G,,B,]2 | %7
 [A,,A,]2 [D,A,]2 [B,,G,]2 [C,G,]2 | [F,,A,]2 (G,F,) [C,E,]2 |] %9
V:4
 x2 | x8 | G,2 x6 | x6 G,2 | x4 G,2 x2 | x8 | x8 | x8 | x2 G,,2 x2 |] %9

